!!!OTL: Der Wildsch&uuml;tz (231), S. 497
!!!id: T0416
**kern
*clefG2
*k[f#]
*G:
{8d
=1
8d
8g
8g
8g
8g
8g
=2
8g
8b
8b
8b
8a}
=3
{8g
=4
8f#
8a
8a
4a
8a
=5
8a
8b
8a
8a
8g}
=6
{8b
=7
4g
8b
4b
8b
=8
4b
8dd
4dd}
=9
{8cc
=10
4cc
8cc
8a
8ee
8dd
=11
8dd
8cc
8a
4g}
=12
{8b
=13
4.b
4g
8b
=14
8b
8dd
8dd
8dd
8cc
8b
=15
4.a
4a}
=16
{8ee
=17
8dd
8cc
8a
4g}
=18
{8b
=19
4.b
4g
8b
=20
8b
8dd
8dd
8dd
8cc
8b
=21
4.a
4a}
=22
{8ee
=23
8dd
8cc
8a
4g}
==
*-
!!!minrhy: 8
!!!meters: 6/8 ]  ZZ[8
!!!cut1: Der Wildsch&uuml;tz (231), S. 497
!!!cut2: Melodie I
!!!reg: Luxemburg
!!!trd: Singendes Volk, Esch-Alzette, 1937 posth.
!!!rhy1: X  XXXXXX  XXXXX
!!!rhy2: X  XXXX_X  XXXXX
!!!key: T0416  08  G 6/8 ]  ZZ[8
!!!mod: HEPTATONIK IONISCH]  AMBITUS[9
!!!kad: 21512121
!!!akz: -5113_-7222_1335_4251_313522_51_313522_51_
!!!fot: 'a__b__as"c__d__e__d__e__
!!!for: 'a__b__c__d__e__aw_e__aw_
!!!fok: '/__^__Va_Sd_Sd_\__Sd_\__
!! PHRAS[AUFTAKTIG]
!!!fkt: J&auml;gerlied
!!!bem: Esch-Alzette, hhh Dominik M&uuml;ller, 7.6.1915
!! THILL; Mathias
!! PR[14] 2K[10] 2G[29] 3K[4] 3G[2] 4A[2] 4Ü[0] 5A[0] 6K[0] 6G[0]
!! 7K[0] 7G[0] 8A[0] MEHR[0] SI[47] ABS[49] SR[39] SP[8]
!! ST[15] 2k[8] 2g[18] 3k[6] 3g[6] 4d[0] 4ü[0] 5d[0] 6k[0] 6g[0]
!! 7k[0] 7g[0] 8d[0] mehr[0] si[39] dm[+8] sr[27] sp[12]
!! 1F[38] 2F[52] 3F[2] 4F[0] LF[0] 2P[8] 3P[0] 4P[0] TRI[0] DF[4] AB[52]
!! TF[0] U3K[0] U3[0] U4[0] U4Ü[0] U5[2] U6K[0] U6[0] U7K[0] U7[0]
!! N1[16] N2K[0] N2[20] N3K[0] N3[28] N4[14] N4Ü[0] N5[18] N6K[0] N6[2]
!!!n7k: 0] N7[0] O1[0] O2K[0] O2[0] O3K[0] O3[0] HÖ[0
!!!RNB: symbol: &auml;      = a umlaut  (UTF-8: Å„)
!!!RNB: symbol: &uuml;  = u umlaut (UTF-8: Ã¼)
